exported-svg/sliders.svg

<svg height="24" viewBox="0 0 24 24" width="24" xmlns="http://www.w3.org/2000/svg"><path d="m3.5 14.5h-2.5c-.27614237 0-.5-.2238576-.5-.5s.22385763-.5.5-.5h6c.27614237 0 .5.2238576.5.5s-.22385763.5-.5.5h-2.5v6.5c0 .2761424-.22385763.5-.5.5s-.5-.2238576-.5-.5zm1-4.5c0 .2761424-.22385763.5-.5.5s-.5-.2238576-.5-.5v-7c0-.27614237.22385763-.5.5-.5s.5.22385763.5.5zm8 11c0 .2761424-.2238576.5-.5.5s-.5-.2238576-.5-.5v-9c0-.2761424.2238576-.5.5-.5s.5.2238576.5.5zm-1-13.5v-4.5c0-.27614237.2238576-.5.5-.5s.5.22385763.5.5v4.5h2.5c.2761424 0 .5.22385763.5.5s-.2238576.5-.5.5h-6c-.27614237 0-.5-.22385763-.5-.5s.22385763-.5.5-.5zm8 9h-2.5c-.2761424 0-.5-.2238576-.5-.5s.2238576-.5.5-.5h6c.2761424 0 .5.2238576.5.5s-.2238576.5-.5.5h-2.5v4.5c0 .2761424-.2238576.5-.5.5s-.5-.2238576-.5-.5zm1-4.5c0 .2761424-.2238576.5-.5.5s-.5-.2238576-.5-.5v-9c0-.27614237.2238576-.5.5-.5s.5.22385763.5.5z"/></svg>

<?xml version="1.0" encoding="UTF-8"?>
<svg width="24px" height="24px" viewBox="0 0 24 24" version="1.1" xmlns="http://www.w3.org/2000/svg" xmlns:xlink="http://www.w3.org/1999/xlink">
    <!-- Generator: Sketch 55.2 (78181) - https://sketchapp.com -->
    <title>sliders</title>
    <desc>Created with Sketch.</desc>
    <g id="sliders" stroke="none" stroke-width="1" fill="none" fill-rule="evenodd">
        <path d="M3.5,14.5 L1,14.5 C0.723857625,14.5 0.5,14.2761424 0.5,14 C0.5,13.7238576 0.723857625,13.5 1,13.5 L7,13.5 C7.27614237,13.5 7.5,13.7238576 7.5,14 C7.5,14.2761424 7.27614237,14.5 7,14.5 L4.5,14.5 L4.5,21 C4.5,21.2761424 4.27614237,21.5 4,21.5 C3.72385763,21.5 3.5,21.2761424 3.5,21 L3.5,14.5 Z" id="Combined-Shape" fill="#000000" fill-rule="nonzero"></path>
        <path d="M4.5,10 L4.5,3 C4.5,2.72385763 4.27614237,2.5 4,2.5 C3.72385763,2.5 3.5,2.72385763 3.5,3 L3.5,10 C3.5,10.2761424 3.72385763,10.5 4,10.5 C4.27614237,10.5 4.5,10.2761424 4.5,10 Z" id="Shape" fill="#000000" fill-rule="nonzero"></path>
        <path d="M12.5,21 L12.5,12 C12.5,11.7238576 12.2761424,11.5 12,11.5 C11.7238576,11.5 11.5,11.7238576 11.5,12 L11.5,21 C11.5,21.2761424 11.7238576,21.5 12,21.5 C12.2761424,21.5 12.5,21.2761424 12.5,21 Z" id="Shape" fill="#000000" fill-rule="nonzero"></path>
        <path d="M11.5,7.5 L11.5,3 C11.5,2.72385763 11.7238576,2.5 12,2.5 C12.2761424,2.5 12.5,2.72385763 12.5,3 L12.5,7.5 L15,7.5 C15.2761424,7.5 15.5,7.72385763 15.5,8 C15.5,8.27614237 15.2761424,8.5 15,8.5 L9,8.5 C8.72385763,8.5 8.5,8.27614237 8.5,8 C8.5,7.72385763 8.72385763,7.5 9,7.5 L11.5,7.5 Z" id="Combined-Shape" fill="#000000" fill-rule="nonzero"></path>
        <path d="M19.5,16.5 L17,16.5 C16.7238576,16.5 16.5,16.2761424 16.5,16 C16.5,15.7238576 16.7238576,15.5 17,15.5 L23,15.5 C23.2761424,15.5 23.5,15.7238576 23.5,16 C23.5,16.2761424 23.2761424,16.5 23,16.5 L20.5,16.5 L20.5,21 C20.5,21.2761424 20.2761424,21.5 20,21.5 C19.7238576,21.5 19.5,21.2761424 19.5,21 L19.5,16.5 Z" id="Combined-Shape" fill="#000000" fill-rule="nonzero"></path>
        <path d="M20.5,12 L20.5,3 C20.5,2.72385763 20.2761424,2.5 20,2.5 C19.7238576,2.5 19.5,2.72385763 19.5,3 L19.5,12 C19.5,12.2761424 19.7238576,12.5 20,12.5 C20.2761424,12.5 20.5,12.2761424 20.5,12 Z" id="Shape" fill="#000000" fill-rule="nonzero"></path>
    </g>
</svg>
